assets/svg/single/clutch.svg

<svg width="100" height="29" viewBox="0 0 100 29" fill="none" xmlns="http://www.w3.org/2000/svg">
<path d="M25.9999 0H30.5999V28.4H25.9999V0Z" fill="black"/>
<path d="M46.6001 19.3999C46.6001 23.7999 43.0001 24.2 41.8001 24.2C39.0001 24.2 38.6001 21.6 38.6001 20.2V9.19995H34.0001V19.9999C34.0001 22.5999 34.8001 24.9999 36.4001 26.3999C37.8001 27.7999 39.6001 28.3999 41.8001 28.3999C43.4001 28.3999 45.4001 28 46.6001 26.8V28.3999H51.2001V9.19995H46.6001V19.3999Z" fill="black"/>
<path d="M60.1999 2.20007H55.5999V9.20007H52.1999V13.6001H55.5999V28.4001H60.1999V13.6001H63.5999V9.20007H60.1999V2.20007Z" fill="black"/>
<path d="M78 22.6C77 23.4 75.6 24 74.2 24C71 24 68.8 21.6 68.8 18.4C68.8 15.2 71 13 74.2 13C75.6 13 77 13.4 78 14.4L78.6 15L81.8 12L81 11.4C79.2 9.80004 76.8 8.80005 74.2 8.80005C68.6 8.80005 64.4 13 64.4 18.6C64.4 24.2 68.6 28.4 74.2 28.4C76.8 28.4 79.2 27.4001 81 25.8001L81.8 25.2001L78.6 22L78 22.6Z" fill="black"/>
<path d="M98.0001 10.8C96.6001 9.4 95.2001 8.8 93.0001 8.8C91.4001 8.8 89.8 9.2 88.6 10.4V0H84.0001V28.4H88.6V17.8C88.6 13.4 91.6001 13 92.8001 13C95.6001 13 95.4001 15.6 95.4001 17V28.2H100V17.2C100 14.6 99.4001 12.2 98.0001 10.8Z" fill="black"/>
<path d="M74 21.8C75.7673 21.8 77.2 20.3673 77.2 18.6C77.2 16.8327 75.7673 15.4 74 15.4C72.2327 15.4 70.8 16.8327 70.8 18.6C70.8 20.3673 72.2327 21.8 74 21.8Z" fill="black"/>
<path d="M19.6 21.4001C18 23.0001 15.6 24.0001 13 24.0001C8 24.0001 4.4 20.0001 4.4 14.6001C4.4 9.2001 8 5.2001 13.2 5.2001C15.6 5.2001 18 6.2001 19.8 8.0001L20.4 8.6001L23.4 5.6001L22.8 5.0001C20.2 2.4001 16.8 1.0001 13.2 1.0001C5.6 0.800097 0 6.8001 0 14.6001C0 22.4001 5.6 28.4001 13 28.4001C16.6 28.4001 20.2 27.0001 22.6 24.4001L23.2 23.8001L20.2 20.8001L19.6 21.4001Z" fill="black"/>
</svg>

<svg width="100" height="29" fill="none" xmlns="http://www.w3.org/2000/svg"><path d="M26 0h4.6v28.4H26V0ZM46.6 19.4c0 4.4-3.6 4.8-4.8 4.8-2.8 0-3.2-2.6-3.2-4v-11H34V20c0 2.6.8 5 2.4 6.4 1.4 1.4 3.2 2 5.4 2 1.6 0 3.6-.4 4.8-1.6v1.6h4.6V9.2h-4.6v10.2ZM60.2 2.2h-4.6v7h-3.4v4.4h3.4v14.8h4.6V13.6h3.4V9.2h-3.4v-7ZM78 22.6c-1 .8-2.4 1.4-3.8 1.4-3.2 0-5.4-2.4-5.4-5.6 0-3.2 2.2-5.4 5.4-5.4 1.4 0 2.8.4 3.8 1.4l.6.6 3.2-3-.8-.6c-1.8-1.6-4.2-2.6-6.8-2.6-5.6 0-9.8 4.2-9.8 9.8 0 5.6 4.2 9.8 9.8 9.8 2.6 0 5-1 6.8-2.6l.8-.6-3.2-3.2-.6.6ZM98 10.8c-1.4-1.4-2.8-2-5-2-1.6 0-3.2.4-4.4 1.6V0H84v28.4h4.6V17.8c0-4.4 3-4.8 4.2-4.8 2.8 0 2.6 2.6 2.6 4v11.2h4.6v-11c0-2.6-.6-5-2-6.4Z" fill="#000"/><path d="M74 21.8a3.2 3.2 0 1 0 0-6.4 3.2 3.2 0 0 0 0 6.4ZM19.6 21.4C18 23 15.6 24 13 24c-5 0-8.6-4-8.6-9.4S8 5.2 13.2 5.2c2.4 0 4.8 1 6.6 2.8l.6.6 3-3-.6-.6c-2.6-2.6-6-4-9.6-4C5.6.8 0 6.8 0 14.6s5.6 13.8 13 13.8c3.6 0 7.2-1.4 9.6-4l.6-.6-3-3-.6.6Z" fill="#000"/></svg>
